;FLAVOR:RepRap
;TIME:2317
M190 S110.000000
M104 S240.000000
M109 S240.000000
;Sliced at: {day} {date} {time}
;Basic settings: Layer height: 0.1 Walls: 0.8 Fill: {fill_density}
;Print time: {print_time}
;Filament used: {filament_amount}m {filament_weight}g
;Filament cost: {filament_cost}
;M190 S{print_bed_temperature} ;Uncomment to add your own bed temperature line
;M109 S{print_temperature} ;Uncomment to add your own temperature line
G21        ;metric values
G90        ;absolute positioning
M82        ;set extruder to absolute mode
M107       ;start with the fan off
G28 X0 Y0  ;move X/Y to min endstops
G28 Z0     ;move Z to min endstops
G1 F12000 X5 Y10 ;move hotend to front left
G1 Z15.0 F{travel_speed} ;move the platform down 15mm
G92 E0                  ;zero the extruded length
G1 F200 E10              ;extrude 10mm of feed stock FAST
G1 F50 E15              ;extrude 15mm of feed stock SLOW
G92 E0                  ;zero the extruded length again
G1 F{travel_speed}
;Put printing message on LCD screen
M117 Printing...

;Generated with Cura_SteamEngine 2.1.3
;LAYER_COUNT:9
;LAYER:0
M107
G1 F1500.000000 E-6.00000
G0 F9000.00000 X59.154 Y99.445 Z0.200
;TYPE:SKIRT
G1 F1500.000 E0.00000
G1 F1200.00000 X60.033 Y98.951 E0.01106
G1 X60.756 Y98.604 E0.01986
G1 X61.696 Y98.225 E0.03098
G1 X62.457 Y97.974 E0.03978
G1 X63.431 Y97.721 E0.05082
G1 X64.218 Y97.569 E0.05962
G1 X65.220 Y97.441 E0.07070
G1 X66.020 Y97.391 E0.07949
G1 X67.022 Y97.393 E0.09049
G1 X67.822 Y97.445 E0.09929
G1 X68.833 Y97.576 E0.11047
G1 X69.620 Y97.731 E0.11927
G1 X70.594 Y97.989 E0.13033
G1 X71.354 Y98.243 E0.13912
G1 X72.293 Y98.626 E0.15025
G1 X73.015 Y98.976 E0.15905
G1 X73.932 Y99.499 E0.17064
G1 X75.152 Y100.308 E0.18670
G1 X75.372 Y100.423 E0.18942
G1 X75.577 Y100.504 E0.19184
G1 X75.803 Y100.566 E0.19441
G1 X76.023 Y100.602 E0.19686
G1 X76.463 Y100.625 E0.20170
G1 X85.359 Y100.625 E0.29931
G1 X85.884 Y100.591 E0.30508
G1 X86.153 Y100.537 E0.30809
G1 X86.420 Y100.447 E0.31119
G1 X86.662 Y100.327 E0.31415
G1 X86.892 Y100.173 E0.31719
G1 X87.306 Y99.811 E0.32322
G1 X99.811 Y87.306 E0.51727
G1 X100.173 Y86.892 E0.52331
G1 X100.327 Y86.662 E0.52634
G1 X100.447 Y86.420 E0.52931
G1 X100.537 Y86.153 E0.53240
G1 X100.591 Y85.884 E0.53541
G1 X100.625 Y85.359 E0.54118
G1 X100.625 Y76.463 E0.63880
G1 X100.602 Y76.023 E0.64363
G1 X100.566 Y75.803 E0.64608
G1 X100.504 Y75.577 E0.64865
G1 X100.423 Y75.372 E0.65107
G1 X100.316 Y75.168 E0.65360
G1 X99.909 Y74.559 E0.66163
G1 X99.471 Y73.889 E0.67042
G1 X98.976 Y73.015 E0.68144
G1 X98.626 Y72.293 E0.69024
G1 X98.243 Y71.354 E0.70137
G1 X97.989 Y70.594 E0.71016
G1 X97.731 Y69.620 E0.72122
G1 X97.576 Y68.833 E0.73002
G1 X97.445 Y67.822 E0.74121
G1 X97.393 Y67.022 E0.75000
G1 X97.391 Y66.020 E0.76100
G1 X97.441 Y65.220 E0.76979
G1 X97.569 Y64.218 E0.78088
G1 X97.721 Y63.431 E0.78967
G1 X97.974 Y62.457 E0.80072
G1 X98.225 Y61.696 E0.80951
G1 X98.604 Y60.756 E0.82063
G1 X98.951 Y60.033 E0.82943
G1 X99.445 Y59.154 E0.84049
G1 X99.881 Y58.482 E0.84928
G1 X100.485 Y57.670 E0.86039
G1 X101.004 Y57.059 E0.86918
G1 X101.709 Y56.330 E0.88031
G1 X102.302 Y55.791 E0.88910
G1 X103.082 Y55.167 E0.90007
G1 X103.739 Y54.707 E0.90887
G1 X104.613 Y54.176 E0.92009
G1 X105.324 Y53.805 E0.92889
G1 X106.245 Y53.397 E0.93994
G1 X106.997 Y53.120 E0.94873
G1 X107.960 Y52.834 E0.95976
G1 X108.741 Y52.655 E0.96855
G1 X109.522 Y52.517 E0.97725
G1 X110.313 Y52.458 E0.98596
G1 X111.107 Y52.479 E0.99467
G1 X111.497 Y52.529 E0.99899
G1 X112.037 Y52.470 E1.00495
G1 X112.831 Y52.463 E1.01366
G1 X113.621 Y52.536 E1.02236
G1 X114.259 Y52.655 E1.02949
G1 X115.040 Y52.834 E1.03828
G1 X116.003 Y53.120 E1.04930
G1 X116.755 Y53.397 E1.05809
G1 X117.676 Y53.805 E1.06915
G1 X118.387 Y54.176 E1.07795
G1 X119.261 Y54.707 E1.08917
G1 X119.918 Y55.167 E1.09797
G1 X120.698 Y55.791 E1.10893
G1 X121.291 Y56.330 E1.11772
G1 X121.996 Y57.059 E1.12885
G1 X122.515 Y57.670 E1.13765
G1 X123.119 Y58.482 E1.14875
G1 X123.555 Y59.154 E1.15754
G1 X124.049 Y60.033 E1.16861
G1 X124.396 Y60.756 E1.17741
G1 X124.775 Y61.696 E1.18853
G1 X125.026 Y62.457 E1.19732
G1 X125.279 Y63.431 E1.20836
G1 X125.431 Y64.218 E1.21716
G1 X125.559 Y65.220 E1.22824
G1 X125.609 Y66.020 E1.23704
G1 X125.607 Y67.022 E1.24803
G1 X125.555 Y67.822 E1.25683
G1 X125.424 Y68.833 E1.26801
G1 X125.269 Y69.620 E1.27682
G1 X125.011 Y70.594 E1.28787
G1 X124.757 Y71.354 E1.29666
G1 X124.374 Y72.293 E1.30779
G1 X124.024 Y73.015 E1.31660
G1 X123.501 Y73.932 E1.32818
G1 X122.692 Y75.152 E1.34424
G1 X122.577 Y75.372 E1.34697
G1 X122.496 Y75.577 E1.34939
G1 X122.434 Y75.803 E1.35196
G1 X122.398 Y76.023 E1.35440
G1 X122.375 Y76.463 E1.35924
G1 X122.375 Y85.359 E1.45685
G1 X122.409 Y85.884 E1.46262
G1 X122.463 Y86.153 E1.46564
G1 X122.553 Y86.420 E1.46873
G1 X122.673 Y86.662 E1.47169
G1 X122.827 Y86.892 E1.47473
G1 X123.189 Y87.306 E1.48076
G1 X135.694 Y99.811 E1.67481
G1 X136.108 Y100.173 E1.68085
G1 X136.338 Y100.327 E1.68389
G1 X136.580 Y100.447 E1.68685
G1 X136.847 Y100.537 E1.68994
G1 X137.116 Y100.591 E1.69295
G1 X137.641 Y100.625 E1.69872
G1 X146.537 Y100.625 E1.79634
G1 X146.977 Y100.602 E1.80117
G1 X147.197 Y100.566 E1.80362
G1 X147.423 Y100.504 E1.80619
G1 X147.628 Y100.423 E1.80861
G1 X147.832 Y100.316 E1.81114
G1 X148.441 Y99.909 E1.81917
G1 X149.111 Y99.471 E1.82796
G1 X149.985 Y98.976 E1.83898
G1 X150.707 Y98.626 E1.84778
G1 X151.646 Y98.243 E1.85891
G1 X152.406 Y97.989 E1.86770
G1 X153.380 Y97.731 E1.87876
G1 X154.167 Y97.576 E1.88756
G1 X155.178 Y97.445 E1.89875
G1 X155.978 Y97.393 E1.90755
G1 X156.980 Y97.391 E1.91854
G1 X157.780 Y97.441 E1.92734
G1 X158.782 Y97.569 E1.93842
G1 X159.569 Y97.721 E1.94721
G1 X160.543 Y97.974 E1.95826
G1 X161.304 Y98.225 E1.96705
G1 X162.244 Y98.604 E1.97817
G1 X162.967 Y98.951 E1.98697
G1 X163.846 Y99.445 E1.99803
G1 X164.518 Y99.881 E2.00682
G1 X165.330 Y100.485 E2.01793
G1 X165.941 Y101.004 E2.02673
G1 X166.670 Y101.709 E2.03785
G1 X167.209 Y102.302 E2.04665
G1 X167.833 Y103.082 E2.05761
G1 X168.293 Y103.739 E2.06641
G1 X168.824 Y104.613 E2.07763
G1 X169.195 Y105.324 E2.08643
G1 X169.603 Y106.245 E2.09748
G1 X169.880 Y106.997 E2.10628
G1 X170.166 Y107.960 E2.11730
G1 X170.345 Y108.741 E2.12609
G1 X170.483 Y109.522 E2.13479
G1 X170.542 Y110.313 E2.14350
G1 X170.521 Y111.107 E2.15221
G1 X170.471 Y111.497 E2.15653
G1 X170.530 Y112.037 E2.16249
G1 X170.537 Y112.831 E2.17120
G1 X170.464 Y113.621 E2.17991
G1 X170.345 Y114.259 E2.18703
G1 X170.166 Y115.040 E2.19582
G1 X169.880 Y116.003 E2.20684
G1 X169.603 Y116.755 E2.21564
G1 X169.195 Y117.676 E2.22669
G1 X168.824 Y118.387 E2.23549
G1 X168.293 Y119.261 E2.24671
G1 X167.833 Y119.918 E2.25551
G1 X167.209 Y120.698 E2.26647
G1 X166.670 Y121.291 E2.27526
G1 X165.941 Y121.996 E2.28639
G1 X165.330 Y122.515 E2.29519
G1 X164.518 Y123.119 E2.30629
G1 X163.846 Y123.555 E2.31508
G1 X162.967 Y124.049 E2.32615
G1 X162.244 Y124.396 E2.33495
G1 X161.304 Y124.775 E2.34607
G1 X160.543 Y125.026 E2.35486
G1 X159.569 Y125.279 E2.36590
G1 X158.782 Y125.431 E2.37470
G1 X157.780 Y125.559 E2.38578
G1 X156.980 Y125.609 E2.39458
G1 X155.978 Y125.607 E2.40557
G1 X155.178 Y125.555 E2.41437
G1 X154.167 Y125.424 E2.42556
G1 X153.380 Y125.269 E2.43436
G1 X152.406 Y125.011 E2.44541
G1 X151.646 Y124.757 E2.45421
G1 X150.707 Y124.374 E2.46533
G1 X149.985 Y124.024 E2.47414
G1 X149.111 Y123.529 E2.48516
G1 X148.366 Y123.042 E2.49493
G1 X147.829 Y122.682 E2.50202
G1 X147.628 Y122.577 E2.50451
G1 X147.423 Y122.496 E2.50693
G1 X147.197 Y122.434 E2.50950
G1 X146.977 Y122.398 E2.51194
G1 X146.537 Y122.375 E2.51678
G1 X137.641 Y122.375 E2.61439
G1 X137.116 Y122.409 E2.62017
G1 X136.847 Y122.463 E2.62318
G1 X136.580 Y122.553 E2.62627
G1 X136.338 Y122.673 E2.62923
G1 X136.108 Y122.827 E2.63227
G1 X135.694 Y123.189 E2.63830
G1 X123.189 Y135.694 E2.83236
G1 X122.827 Y136.108 E2.83839
G1 X122.673 Y136.337 E2.84142
G1 X122.553 Y136.580 E2.84439
G1 X122.463 Y136.847 E2.84748
G1 X122.409 Y137.116 E2.85049
G1 X122.375 Y137.641 E2.85627
G1 X122.375 Y146.537 E2.95388
G1 X122.398 Y146.977 E2.95872
G1 X122.434 Y147.197 E2.96116
G1 X122.496 Y147.423 E2.96373
G1 X122.577 Y147.628 E2.96615
G1 X122.684 Y147.832 E2.96868
G1 X123.091 Y148.441 E2.97672
G1 X123.529 Y149.111 E2.98550
G1 X124.024 Y149.985 E2.99652
G1 X124.374 Y150.707 E3.00533
G1 X124.757 Y151.646 E3.01645
G1 X125.011 Y152.406 E3.02525
G1 X125.269 Y153.380 E3.03630
G1 X125.424 Y154.167 E3.04510
G1 X125.555 Y155.178 E3.05629
G1 X125.607 Y155.978 E3.06509
G1 X125.609 Y156.980 E3.07608
G1 X125.559 Y157.780 E3.08488
G1 X125.431 Y158.782 E3.09596
G1 X125.279 Y159.569 E3.10476
G1 X125.026 Y160.543 E3.11580
G1 X124.775 Y161.304 E3.12459
G1 X124.396 Y162.244 E3.13571
G1 X124.049 Y162.967 E3.14451
G1 X123.555 Y163.846 E3.15558
G1 X123.119 Y164.518 E3.16437
G1 X122.515 Y165.330 E3.17547
G1 X121.996 Y165.941 E3.18427
G1 X121.291 Y166.670 E3.19540
G1 X120.698 Y167.209 E3.20419
G1 X119.918 Y167.833 E3.21515
G1 X119.261 Y168.293 E3.22395
G1 X118.387 Y168.824 E3.23517
G1 X117.676 Y169.195 E3.24397
G1 X116.755 Y169.603 E3.25502
G1 X116.003 Y169.880 E3.26382
G1 X115.040 Y170.166 E3.27484
G1 X114.259 Y170.345 E3.28363
G1 X113.478 Y170.483 E3.29234
G1 X112.687 Y170.542 E3.30104
G1 X111.893 Y170.521 E3.30976
G1 X111.503 Y170.471 E3.31407
G1 X110.963 Y170.530 E3.32003
G1 X110.169 Y170.537 E3.32874
G1 X109.379 Y170.464 E3.33745
G1 X108.741 Y170.345 E3.34457
G1 X107.960 Y170.166 E3.35336
G1 X106.997 Y169.880 E3.36438
G1 X106.245 Y169.603 E3.37318
G1 X105.324 Y169.195 E3.38423
G1 X104.613 Y168.824 E3.39303
G1 X103.739 Y168.293 E3.40425
G1 X103.082 Y167.833 E3.41305
G1 X102.302 Y167.209 E3.42401
G1 X101.709 Y166.670 E3.43281
G1 X101.004 Y165.941 E3.44393
G1 X100.485 Y165.330 E3.45273
G1 X99.881 Y164.518 E3.46384
G1 X99.445 Y163.846 E3.47263
G1 X98.951 Y162.967 E3.48369
G1 X98.604 Y162.244 E3.49249
G1 X98.225 Y161.304 E3.50361
G1 X97.974 Y160.543 E3.51240
G1 X97.721 Y159.569 E3.52345
G1 X97.569 Y158.782 E3.53224
G1 X97.441 Y157.780 E3.54333
G1 X97.391 Y156.980 E3.55212
G1 X97.393 Y155.978 E3.56312
G1 X97.445 Y155.178 E3.57191
G1 X97.576 Y154.167 E3.58310
G1 X97.731 Y153.380 E3.59190
G1 X97.989 Y152.406 E3.60296
G1 X98.243 Y151.646 E3.61175
G1 X98.626 Y150.707 E3.62288
G1 X98.976 Y149.985 E3.63168
G1 X99.499 Y149.068 E3.64326
G1 X100.308 Y147.848 E3.65933
G1 X100.423 Y147.628 E3.66205
G1 X100.504 Y147.423 E3.66447
G1 X100.566 Y147.197 E3.66704
G1 X100.602 Y146.977 E3.66949
G1 X100.625 Y146.537 E3.67432
G1 X100.625 Y137.641 E3.77194
G1 X100.591 Y137.116 E3.77771
G1 X100.537 Y136.847 E3.78072
G1 X100.447 Y136.580 E3.78381
G1 X100.327 Y136.337 E3.78678
G1 X100.173 Y136.108 E3.78981
G1 X99.811 Y135.694 E3.79585
G1 X87.306 Y123.189 E3.98990
G1 X86.892 Y122.827 E3.99593
G1 X86.662 Y122.673 E3.99897
G1 X86.420 Y122.553 E4.00193
G1 X86.153 Y122.463 E4.00503
G1 X85.884 Y122.409 E4.00804
G1 X85.359 Y122.375 E4.01381
G1 X76.463 Y122.375 E4.11142
G1 X76.023 Y122.398 E4.11626
G1 X75.803 Y122.434 E4.11870
G1 X75.577 Y122.496 E4.12128
G1 X75.372 Y122.577 E4.12369
G1 X75.168 Y122.684 E4.12622
G1 X74.559 Y123.091 E4.13426
G1 X73.889 Y123.529 E4.14304
G1 X73.015 Y124.024 E4.15406
G1 X72.293 Y124.374 E4.16287
G1 X71.354 Y124.757 E4.17400
G1 X70.594 Y125.011 E4.18279
G1 X69.620 Y125.269 E4.19385
G1 X68.833 Y125.424 E4.20265
G1 X67.822 Y125.555 E4.21383
G1 X67.022 Y125.607 E4.22263
G1 X66.020 Y125.609 E4.23362
G1 X65.220 Y125.559 E4.24242
G1 X64.218 Y125.431 E4.25350
G1 X63.431 Y125.279 E4.26230
G1 X62.457 Y125.026 E4.27334
G1 X61.696 Y124.775 E4.28213
G1 X60.756 Y124.396 E4.29326
G1 X60.033 Y124.049 E4.30206
G1 X59.154 Y123.555 E4.31312
G1 X58.482 Y123.119 E4.32191
G1 X57.670 Y122.515 E4.33301
G1 X57.059 Y121.996 E4.34181
G1 X56.330 Y121.291 E4.35294
G1 X55.791 Y120.698 E4.36173
G1 X55.167 Y119.918 E4.37269
G1 X54.707 Y119.261 E4.38149
G1 X54.176 Y118.387 E4.39271
G1 X53.805 Y117.676 E4.40151
G1 X53.397 Y116.755 E4.41257
G1 X53.120 Y116.003 E4.42136
G1 X52.834 Y115.040 E4.43238
G1 X52.655 Y114.259 E4.44118
G1 X52.517 Y113.478 E4.44988
G1 X52.458 Y112.687 E4.45858
G1 X52.479 Y111.893 E4.46730
G1 X52.529 Y111.500 E4.47164
G1 X52.470 Y110.963 E4.47757
G1 X52.463 Y110.169 E4.48629
G1 X52.536 Y109.379 E4.49499
G1 X52.655 Y108.741 E4.50211
G1 X52.834 Y107.960 E4.51090
G1 X53.120 Y106.997 E4.52193
G1 X53.397 Y106.245 E4.53072
G1 X53.805 Y105.324 E4.54177
G1 X54.176 Y104.613 E4.55057
G1 X54.707 Y103.739 E4.56180
G1 X55.167 Y103.082 E4.57060
G1 X55.791 Y102.302 E4.58156
G1 X56.330 Y101.709 E4.59035
G1 X57.059 Y101.004 E4.60148
G1 X57.670 Y100.485 E4.61027
G1 X58.482 Y99.881 E4.62138
G1 X59.154 Y99.445 E4.63017
G0 F9000.00000 X59.344 Y99.738
G1 F1200.000 X60.184 Y99.267 E4.64074
G1 X60.907 Y98.920 E4.64954
G1 X61.806 Y98.558 E4.66017
G1 X62.567 Y98.307 E4.66896
G1 X63.497 Y98.065 E4.67951
G1 X64.284 Y97.913 E4.68830
G1 X65.242 Y97.791 E4.69890
G1 X66.042 Y97.741 E4.70769
G1 X66.999 Y97.742 E4.71820
G1 X67.799 Y97.794 E4.72699
G1 X68.765 Y97.920 E4.73768
G1 X69.552 Y98.075 E4.74648
G1 X70.483 Y98.321 E4.75705
G1 X71.243 Y98.575 E4.76584
G1 X72.140 Y98.941 E4.77647
G1 X72.862 Y99.291 E4.78528
G1 X73.738 Y99.790 E4.79634
G1 X74.974 Y100.609 E4.81261
G1 X75.222 Y100.739 E4.81568
G1 X75.477 Y100.840 E4.81869
G1 X75.729 Y100.909 E4.82156
G1 X75.984 Y100.951 E4.82439
G1 X76.444 Y100.975 E4.82945
G1 X85.367 Y100.975 E4.92736
G1 X85.929 Y100.938 E4.93354
G1 X86.249 Y100.875 E4.93712
G1 X86.549 Y100.773 E4.94059
G1 X86.841 Y100.629 E4.94417
G1 X87.105 Y100.453 E4.94765
G1 X87.536 Y100.075 E4.95394
G1 X100.075 Y87.536 E5.14852
G1 X100.453 Y87.105 E5.15481
G1 X100.629 Y86.841 E5.15829
G1 X100.773 Y86.549 E5.16186
G1 X100.875 Y86.249 E5.16534
G1 X100.938 Y85.929 E5.16892
G1 X100.975 Y85.367 E5.17510
G1 X100.975 Y76.444 E5.27301
G1 X100.951 Y75.984 E5.27806
G1 X100.909 Y75.729 E5.28090
G1 X100.840 Y75.477 E5.28377
G1 X100.739 Y75.222 E5.28678
G1 X100.617 Y74.989 E5.28966
G1 X100.201 Y74.368 E5.29786
G1 X99.763 Y73.698 E5.30665
G1 X99.291 Y72.862 E5.31718
G1 X98.941 Y72.140 E5.32598
G1 X98.575 Y71.243 E5.33662
G1 X98.321 Y70.483 E5.34541
G1 X98.075 Y69.552 E5.35597
G1 X97.920 Y68.765 E5.36478
G1 X97.794 Y67.799 E5.37547
G1 X97.742 Y66.999 E5.38426
G1 X97.741 Y66.042 E5.39476
G1 X97.791 Y65.242 E5.40356
G1 X97.913 Y64.284 E5.41416
G1 X98.065 Y63.497 E5.42295
G1 X98.307 Y62.567 E5.43350
G1 X98.558 Y61.806 E5.44229
G1 X98.920 Y60.907 E5.45292
G1 X99.267 Y60.184 E5.46172
G1 X99.738 Y59.344 E5.47229
G1 X100.174 Y58.672 E5.48108
G1 X100.752 Y57.896 E5.49170
G1 X101.271 Y57.285 E5.50049
G1 X101.945 Y56.589 E5.51112
G1 X102.538 Y56.050 E5.51992
G1 X103.283 Y55.454 E5.53039
G1 X103.940 Y54.994 E5.53919
G1 X104.775 Y54.487 E5.54991
G1 X105.486 Y54.116 E5.55871
G1 X106.366 Y53.726 E5.56927
G1 X107.118 Y53.449 E5.57806
G1 X108.038 Y53.175 E5.58859
G1 X108.819 Y52.996 E5.59739
G1 X109.583 Y52.862 E5.60590
G1 X110.357 Y52.807 E5.61441
G1 X111.132 Y52.833 E5.62292
G1 X111.476 Y52.880 E5.62673
G1 X111.546 Y52.867 E5.62751
G1 X112.319 Y52.808 E5.63602
G1 X113.095 Y52.830 E5.64454
G1 X114.181 Y52.996 E5.65659
G1 X114.962 Y53.175 E5.66538
G1 X115.882 Y53.449 E5.67592
G1 X116.634 Y53.726 E5.68471
G1 X117.514 Y54.116 E5.69527
G1 X118.225 Y54.487 E5.70407
G1 X119.060 Y54.994 E5.71479
G1 X119.717 Y55.454 E5.72359
G1 X120.462 Y56.050 E5.73406
G1 X121.055 Y56.589 E5.74285
G1 X121.729 Y57.285 E5.75348
G1 X122.248 Y57.896 E5.76228
G1 X122.826 Y58.672 E5.77290
G1 X123.262 Y59.344 E5.78169
G1 X123.733 Y60.184 E5.79226
G1 X124.080 Y60.907 E5.80106
G1 X124.442 Y61.806 E5.81169
G1 X124.693 Y62.567 E5.82048
G1 X124.935 Y63.497 E5.83103
G1 X125.087 Y64.284 E5.83982
G1 X125.209 Y65.242 E5.85042
G1 X125.259 Y66.042 E5.85921
G1 X125.258 Y66.999 E5.86972
G1 X125.206 Y67.799 E5.87851
G1 X125.080 Y68.765 E5.88920
G1 X124.925 Y69.552 E5.89800
G1 X124.679 Y70.483 E5.90857
G1 X124.425 Y71.243 E5.91736
G1 X124.059 Y72.140 E5.92799
G1 X123.709 Y72.862 E5.93680
G1 X123.210 Y73.738 E5.94786
G1 X122.391 Y74.974 E5.96413
G1 X122.261 Y75.222 E5.96720
G1 X122.160 Y75.477 E5.97021
G1 X122.091 Y75.729 E5.97308
G1 X122.049 Y75.984 E5.97591
G1 X122.025 Y76.444 E5.98097
G1 X122.025 Y85.367 E6.07888
